X:194
T:I’ll Touzle Your Kerchy. RH.194
R:jig
S:Rev.R.Harrison’s MS,c1815,Cumbria
O:England
A:Temple Sowerby,Cumbria
Z:vmp.Simon Wilson. Review PJH, 2008.
M:6/8
L:1/8
Q:3/8=120
K:Em
B|E>GE GEG|B>AB e2f|g>fe dgB|A>GA BGE|!
E>GE GEG|B>AB e2f|g>fe dcB|AGF E2:|!
|:B|E>GE B2B|GEG B2B|E>GE A2G|EDE A2G/F/|!
E>GE B2B|GEG e2f|gfe dcB|AGF E2:|

